public/youtube.svg

<svg xmlns="http://www.w3.org/2000/svg" width="32" height="22" viewBox="0 0 32 22" fill="none">
<path d="M31.2899 3.44019C30.9172 2.08413 29.8418 1.02226 28.4633 0.659573C26.6117 -0.0436408 8.67725 -0.388195 3.4747 0.679722C2.09623 1.04644 1.0168 2.10428 0.648114 3.46034C-0.187572 7.06708 -0.251068 14.8649 0.668596 18.5522C1.04138 19.9083 2.11671 20.9701 3.49518 21.3328C7.16155 22.163 24.5922 22.2799 28.4838 21.3328C29.8623 20.9661 30.9417 19.9083 31.3104 18.5522C32.2014 14.6231 32.2649 7.30887 31.2899 3.44019Z" fill="#FF0000"/>
<path d="M21.2535 10.9962L12.8966 6.28125V15.7112L21.2535 10.9962Z" fill="white"/>
</svg>

<svg xmlns="http://www.w3.org/2000/svg" width="32" height="22" fill="none" xmlns:v="https://vecta.io/nano"><path d="M31.29 3.44c-.373-1.356-1.448-2.418-2.827-2.781C26.612-.044 8.677-.388 3.475.68 2.096 1.046 1.017 2.104.648 3.46c-.836 3.607-.899 11.405.02 15.092.373 1.356 1.448 2.418 2.827 2.781 3.666.83 21.097.947 24.989 0 1.379-.367 2.458-1.424 2.827-2.781.891-3.929.954-11.243-.021-15.112z" fill="red"/><path d="M21.254 10.996l-8.357-4.715v9.43l8.357-4.715z" fill="#fff"/></svg>
